X:1
T:Title
%%score ( 1 2 ) ( 3 4 )
L:1/8
Q:1/4=90
M:4/4
K:Bb
V:1 treble nm="Grand Piano, Soprano"
V:2 treble 
V:3 bass nm="Choir Pad, Be Up and Doing, Garton"
V:4 bass 
V:1
 [B,D][CE][DF][DF] [_D=E][=DF][_EG][DF] | [B,D][DF][DB][DB]- [DB]3/2 z/ z2 | %2
w: By~D.~Frank~Garton * * * * * * *||
 [FA][EG][DF][DF] [_D=E][=DF][_EG][DF] | [A,C][B,D] [CE]6 | %4
w: ||
 [B,D][CE][DF][DF] [_D=E][=DF][_EG][DF] | [CE][B,D][EG][EG]- [EG]3/2 z/ z2 | %6
w: ||
 [FA][EG][DF][A,C]- [A,C][B,D][CE][DF] | [EG][EA] [DB]6 | [DF][DB] [Ec]2 [Ec]2 .[EF]2 | %9
w: |||
 [Fc][Fd][Ec][DB]- [DB]3/2 z/ z2 | [Fd]2 [Fc]2 [FA][GB] [FA]2 | G-[CG] F2- [DF-]2 [EF]2 | %12
w: |||
 [DB][Ec] [Fd]6 | [Ec][Fd] [Ge]6 | [Ec][Ge] [Fd]2 [DB][Fd][Ec][EF]- | [EF][Ec] B2- [EB-]2 [DB]2 |] %16
w: ||||
V:2
 x8 | x8 | x8 | x8 | x8 | x8 | x8 | x8 | x8 | x8 | x8 | .C2 C2 z4 | x8 | x8 | x8 | z2 D2 z4 |] %16
V:3
 z2 [B,,,B,,]4 [B,,,B,,]2- | [B,,,B,,]2 B,,2 D,F, [B,,B,]2 | z2 [B,,,B,,]4 B,,2 | %3
 A,,G,, F,,2 A,,C, [F,,F,]2 | z2 [B,,,B,,]4 B,,2 | C,D, E,2 E,,G,, [E,,E,]2 | %6
 z2 [F,,F,]4 [F,,F,]2- | [F,,F,]2 B,,2 D,F, [B,,,B,,]2 | z2 [F,A,]2 [F,A,]2 .[F,C]2 | %9
 [F,A,][F,A,][B,,B,][B,,B,]- [B,,B,]3/2 z/ z2 | [B,,B,]2 [F,A,]2 [F,C][F,C] [C,C]2 | %11
 B,B, A,2 B,2 C2 | z4 [D,F,][C,E,] [B,,D,]2 | z4 [E,G,][D,F,] [C,E,]2 | %14
 [E,G,][E,B,] [F,B,]2 F,[F,B,][F,A,][F,A,]- | [F,A,][F,A,] B,2 G,2 F,2 |] %16
V:4
 x8 | x8 | x8 | x8 | x8 | x8 | x8 | x8 | x8 | x8 | x8 | C,2 F,6 | x8 | x8 | x8 | z2 B,,6 |] %16

